app/img/step-6/var-1.svg

<svg width="90" height="90" viewBox="0 0 90 90" fill="none" xmlns="http://www.w3.org/2000/svg">
<g clip-path="url(#clip0)">
<path d="M85.473 14.487V28.4306H4.52734V14.487C4.52734 12.4027 5.70078 10.5918 7.42473 9.68275C8.18167 9.28074 9.04364 9.05438 9.95994 9.05438H80.0404C82.1247 9.05438 83.9356 10.2278 84.8447 11.9518C85.2467 12.7087 85.473 13.5707 85.473 14.487Z" fill="#FF6B6B"/>
<path d="M26.2574 9.05438V19.1952C26.2574 20.1948 25.4461 21.0061 24.4465 21.0061H16.1165C15.1169 21.0061 14.3057 20.1948 14.3057 19.1952V9.05438H26.2574Z" fill="#FF1F3D"/>
<path d="M72.7964 9.05438V19.1952C72.7964 20.1948 71.9852 21.0061 70.9856 21.0061H62.6556C61.656 21.0061 60.8447 20.1948 60.8447 19.1952V9.05438H72.7964Z" fill="#FF1F3D"/>
<path d="M7.42473 9.68268V28.4306H4.52734V14.4869C4.52734 12.4026 5.70078 10.5917 7.42473 9.68268Z" fill="#FF1F3D"/>
<path d="M19.3761 39.2632H28.693C29.193 39.2632 29.5985 39.6686 29.5985 40.1686V49.4855C29.5985 49.9855 29.193 50.391 28.693 50.391H19.3761C18.8762 50.391 18.4707 49.9855 18.4707 49.4855V40.1686C18.4707 39.6686 18.8762 39.2632 19.3761 39.2632Z" fill="#F29C1F"/>
<path d="M19.3761 53.1072H28.693C29.193 53.1072 29.5985 53.5126 29.5985 54.0126V63.3313C29.5985 63.8313 29.193 64.2368 28.693 64.2368H19.3761C18.8762 64.2368 18.4707 63.8313 18.4707 63.3313V54.0126C18.4707 53.5126 18.8762 53.1072 19.3761 53.1072Z" fill="#F29C1F"/>
<path d="M19.3761 66.9531H28.693C29.193 66.9531 29.5985 67.3585 29.5985 67.8585V77.1754C29.5985 77.6754 29.193 78.0808 28.693 78.0808H19.3761C18.8762 78.0808 18.4707 77.6754 18.4707 77.1754V67.8585C18.4707 67.3585 18.8762 66.9531 19.3761 66.9531Z" fill="#F29C1F"/>
<path d="M33.2199 39.2632H42.736C43.236 39.2632 43.6414 39.6686 43.6414 40.1686V49.4855C43.6414 49.9855 43.236 50.391 42.736 50.391H33.2199C32.7199 50.391 32.3145 49.9855 32.3145 49.4855V40.1686C32.3145 39.6686 32.7199 39.2632 33.2199 39.2632Z" fill="#F29C1F"/>
<path d="M33.2199 53.1072H42.736C43.236 53.1072 43.6414 53.5126 43.6414 54.0126V63.3313C43.6414 63.8313 43.236 64.2368 42.736 64.2368H33.2199C32.7199 64.2368 32.3145 63.8313 32.3145 63.3313V54.0126C32.3145 53.5126 32.7199 53.1072 33.2199 53.1072Z" fill="#F29C1F"/>
<path d="M33.2199 66.9531H42.736C43.236 66.9531 43.6414 67.3585 43.6414 67.8585V77.1754C43.6414 77.6754 43.236 78.0808 42.736 78.0808H33.2199C32.7199 78.0808 32.3145 77.6754 32.3145 77.1754V67.8585C32.3145 67.3585 32.7199 66.9531 33.2199 66.9531Z" fill="#F29C1F"/>
<path d="M47.2638 39.2632H56.7799C57.2799 39.2632 57.6854 39.6686 57.6854 40.1686V49.4855C57.6854 49.9855 57.2799 50.391 56.7799 50.391H47.2638C46.7639 50.391 46.3584 49.9855 46.3584 49.4855V40.1686C46.3584 39.6686 46.7639 39.2632 47.2638 39.2632Z" fill="#F29C1F"/>
<path d="M47.2638 53.1072H56.7799C57.2799 53.1072 57.6854 53.5126 57.6854 54.0126V63.3313C57.6854 63.8313 57.2799 64.2368 56.7799 64.2368H47.2638C46.7639 64.2368 46.3584 63.8313 46.3584 63.3313V54.0126C46.3584 53.5126 46.7639 53.1072 47.2638 53.1072Z" fill="#F29C1F"/>
<path d="M47.2638 66.9531H56.7799C57.2799 66.9531 57.6854 67.3585 57.6854 67.8585V77.1754C57.6854 77.6754 57.2799 78.0808 56.7799 78.0808H47.2638C46.7639 78.0808 46.3584 77.6754 46.3584 77.1754V67.8585C46.3584 67.3585 46.7639 66.9531 47.2638 66.9531Z" fill="#F29C1F"/>
<path d="M71.5291 40.1686V49.4855C71.5291 49.9855 71.1237 50.391 70.6237 50.391H61.3068C60.8068 50.391 60.4014 49.9855 60.4014 49.4855V40.1686C60.4014 39.6686 60.8068 39.2632 61.3068 39.2632H70.6237C71.1237 39.2632 71.5291 39.6686 71.5291 40.1686Z" fill="#F29C1F"/>
<path d="M61.3068 53.1072H70.6237C71.1237 53.1072 71.5291 53.5126 71.5291 54.0126V63.3313C71.5291 63.8313 71.1237 64.2368 70.6237 64.2368H61.3068C60.8068 64.2368 60.4014 63.8313 60.4014 63.3313V54.0126C60.4014 53.5126 60.8068 53.1072 61.3068 53.1072Z" fill="#F29C1F"/>
<path d="M61.3068 66.9531H70.6237C71.1237 66.9531 71.5291 67.3585 71.5291 67.8585V77.1754C71.5291 77.6754 71.1237 78.0808 70.6237 78.0808H61.3068C60.8068 78.0808 60.4014 77.6754 60.4014 77.1754V67.8585C60.4014 67.3585 60.8068 66.9531 61.3068 66.9531Z" fill="#F29C1F"/>
<path d="M4.52734 27.163V84.5674C4.52734 87.568 6.95934 90 9.95994 90H80.0404C83.041 90 85.473 87.568 85.473 84.5674V27.163H4.52734Z" fill="#F5D868"/>
<path d="M26.2575 1.81087V16.2978C26.2575 17.2974 25.4462 18.1087 24.4466 18.1087H19.014C18.0144 18.1087 17.2031 17.2974 17.2031 16.2978V1.81087C17.2031 0.811268 18.0144 0 19.014 0H24.4466C25.4462 0 26.2575 0.811268 26.2575 1.81087Z" fill="#50758D"/>
<path d="M18.4707 39.2632H29.5985V50.391H18.4707V39.2632Z" fill="#FEFEFE"/>
<path d="M60.4014 39.2632H71.5291V50.391H60.4014V39.2632Z" fill="#F29C1F"/>
<path d="M32.3154 39.2632H43.6424V50.391H32.3154V39.2632Z" fill="#F29C1F"/>
<path d="M18.4707 53.1072H29.5985V64.2368H18.4707V53.1072Z" fill="#F29C1F"/>
<path d="M60.4014 53.1072H71.5291V64.2368H60.4014V53.1072Z" fill="#F29C1F"/>
<path d="M32.3154 53.1072H43.6424V64.2368H32.3154V53.1072Z" fill="#F29C1F"/>
<path d="M18.4707 66.9531H29.5985V78.0808H18.4707V66.9531Z" fill="#F29C1F"/>
<path d="M60.4014 66.9531H71.5291V78.0808H60.4014V66.9531Z" fill="#F29C1F"/>
<path d="M32.3154 66.9531H43.6424V78.0808H32.3154V66.9531Z" fill="#F29C1F"/>
<path d="M46.3584 39.2632H57.6854V50.391H46.3584V39.2632Z" fill="#F29C1F"/>
<path d="M46.3584 53.1072H57.6854V64.2368H46.3584V53.1072Z" fill="#F29C1F"/>
<path d="M46.3584 66.9531H57.6854V78.0808H46.3584V66.9531Z" fill="#F29C1F"/>
<path d="M72.7975 1.81087V16.2978C72.7975 17.2974 71.9862 18.1087 70.9866 18.1087H65.554C64.5544 18.1087 63.7432 17.2974 63.7432 16.2978V1.81087C63.7432 0.811268 64.5544 0 65.554 0H70.9866C71.9862 0 72.7975 0.811268 72.7975 1.81087Z" fill="#50758D"/>
<path d="M4.52734 27.163V84.5674C4.52734 87.568 6.95934 90 9.95994 90H11.9664C9.43298 89.54 7.51527 87.3235 7.51527 84.6579V31.0056C7.7199 30.4533 8.25048 30.0603 8.87342 30.0603H85.473V27.2535V27.163H4.52734Z" fill="#F29C1F"/>
<path d="M21.9114 18.1087H19.014C18.0144 18.1087 17.2031 17.2974 17.2031 16.2978V1.81087C17.2031 0.811268 18.0144 0 19.014 0H20.1005V16.2978C20.1005 17.2974 20.9118 18.1087 21.9114 18.1087Z" fill="#2B597F"/>
<path d="M68.4514 18.1087H65.554C64.5544 18.1087 63.7432 17.2974 63.7432 16.2978V1.81087C63.7432 0.811268 64.5544 0 65.554 0H66.6406V16.2978C66.6406 17.2974 67.4518 18.1087 68.4514 18.1087Z" fill="#2B597F"/>
</g>
<defs>
<clipPath id="clip0">
<rect width="90" height="90" fill="white"/>
</clipPath>
</defs>
</svg>

<svg width="90" height="90" fill="none" xmlns="http://www.w3.org/2000/svg"><g clip-path="url(#clip0)"><path d="M85.473 14.487v13.944H4.527V14.487a5.426 5.426 0 012.898-4.804 5.385 5.385 0 012.535-.629h70.08a5.426 5.426 0 014.805 2.898c.402.757.628 1.619.628 2.535z" fill="#FF6B6B"/><path d="M26.257 9.054v10.141c0 1-.81 1.811-1.81 1.811h-8.33c-1 0-1.811-.811-1.811-1.81V9.053h11.951zM72.796 9.054v10.141c0 1-.81 1.811-1.81 1.811h-8.33c-1 0-1.811-.811-1.811-1.81V9.053h11.951zM7.425 9.683V28.43H4.527V14.487a5.426 5.426 0 012.898-4.804z" fill="#FF1F3D"/><path d="M19.376 39.263h9.317c.5 0 .905.406.905.906v9.317c0 .5-.405.905-.905.905h-9.317a.906.906 0 01-.905-.905v-9.317c0-.5.405-.906.905-.906zM19.376 53.107h9.317c.5 0 .905.406.905.906v9.318c0 .5-.405.906-.905.906h-9.317a.906.906 0 01-.905-.906v-9.318c0-.5.405-.906.905-.906zM19.376 66.953h9.317c.5 0 .905.406.905.906v9.316c0 .5-.405.906-.905.906h-9.317a.906.906 0 01-.905-.906V67.86c0-.5.405-.906.905-.906zM33.22 39.263h9.516c.5 0 .905.406.905.906v9.317c0 .5-.405.905-.905.905H33.22a.906.906 0 01-.905-.905v-9.317c0-.5.405-.906.905-.906zM33.22 53.107h9.516c.5 0 .905.406.905.906v9.318c0 .5-.405.906-.905.906H33.22a.906.906 0 01-.905-.906v-9.318c0-.5.405-.906.905-.906zM33.22 66.953h9.516c.5 0 .905.406.905.906v9.316c0 .5-.405.906-.905.906H33.22a.905.905 0 01-.905-.906V67.86c0-.5.405-.906.905-.906zM47.264 39.263h9.516c.5 0 .905.406.905.906v9.317c0 .5-.405.905-.905.905h-9.516a.906.906 0 01-.906-.905v-9.317c0-.5.406-.906.906-.906zM47.264 53.107h9.516c.5 0 .905.406.905.906v9.318c0 .5-.405.906-.905.906h-9.516a.906.906 0 01-.906-.906v-9.318c0-.5.406-.906.906-.906zM47.264 66.953h9.516c.5 0 .905.406.905.906v9.316c0 .5-.405.906-.905.906h-9.516a.906.906 0 01-.906-.906V67.86c0-.5.406-.906.906-.906zM71.53 40.169v9.317c0 .5-.406.905-.906.905h-9.317a.906.906 0 01-.906-.905v-9.317c0-.5.406-.906.906-.906h9.317c.5 0 .905.406.905.906zM61.307 53.107h9.317c.5 0 .905.406.905.906v9.318c0 .5-.405.906-.905.906h-9.317a.906.906 0 01-.906-.906v-9.318c0-.5.406-.906.906-.906zM61.307 66.953h9.317c.5 0 .905.406.905.906v9.316c0 .5-.405.906-.905.906h-9.317a.905.905 0 01-.906-.906V67.86c0-.5.406-.906.906-.906z" fill="#F29C1F"/><path d="M4.527 27.163v57.404C4.527 87.568 6.96 90 9.96 90h70.08c3.001 0 5.433-2.432 5.433-5.433V27.163H4.527z" fill="#F5D868"/><path d="M26.258 1.81v14.488c0 1-.812 1.81-1.811 1.81h-5.433c-1 0-1.81-.81-1.81-1.81V1.81c0-1 .81-1.811 1.81-1.811h5.433c1 0 1.81.811 1.81 1.81z" fill="#50758D"/><path d="M18.47 39.263H29.6v11.128H18.47V39.263z" fill="#FEFEFE"/><path d="M60.401 39.263H71.53v11.128H60.401V39.263zM32.315 39.263h11.327v11.128H32.315V39.263zM18.47 53.107H29.6v11.13H18.47v-11.13zM60.401 53.107H71.53v11.13H60.401v-11.13zM32.315 53.107h11.327v11.13H32.315v-11.13zM18.47 66.953H29.6v11.128H18.47V66.953zM60.401 66.953H71.53v11.128H60.401V66.953zM32.315 66.953h11.327v11.128H32.315V66.953zM46.358 39.263h11.327v11.128H46.358V39.263zM46.358 53.107h11.327v11.13H46.358v-11.13zM46.358 66.953h11.327v11.128H46.358V66.953z" fill="#F29C1F"/><path d="M72.797 1.81v14.488c0 1-.81 1.81-1.81 1.81h-5.433c-1 0-1.81-.81-1.81-1.81V1.81c0-1 .81-1.811 1.81-1.811h5.433c1 0 1.81.811 1.81 1.81z" fill="#50758D"/><path d="M4.527 27.163v57.404C4.527 87.568 6.96 90 9.96 90h2.006a5.429 5.429 0 01-4.45-5.342V31.006a1.448 1.448 0 011.357-.946h76.6V27.163H4.527z" fill="#F29C1F"/><path d="M21.911 18.109h-2.897c-1 0-1.81-.812-1.81-1.811V1.81c0-1 .81-1.811 1.81-1.811h1.087v16.298c0 1 .81 1.81 1.81 1.81zM68.451 18.109h-2.897c-1 0-1.81-.812-1.81-1.811V1.81c0-1 .81-1.811 1.81-1.811h1.087v16.298c0 1 .81 1.81 1.81 1.81z" fill="#2B597F"/></g><defs><clipPath id="clip0"><path fill="#fff" d="M0 0h90v90H0z"/></clipPath></defs></svg>
